X:1
T:Pas de Six, VII. Coda
T:Pas de Six, VII. Coda
T:Swan Lake, Piano Arrangement for 3 hands
T:Hinci
C:Hinci
%%score { ( 1 4 ) | 2 | 3 }
L:1/8
Q:1/4=156
M:2/4
K:Ab
V:1 treble nm="Piano" snm="Pno."
V:4 treble 
V:2 bass 
V:3 bass 
V:1
"^Allegro molto." z .[A,CEA] z .[A,CEA] | z .[A,CEA] z .[A,CEA] |!f! z2 e2- | e2 f2- | f2 e2- | %5
 ec BA | c z e2- | e2 f2- | f2 e2- | ec fe | B z [fd'f']2 | [fd'f']2 [fd'f']2 | %12
 ([ge'g'][f=d'f']) ([ge'g'][fd'f']) | ([ge'g'][f=d'f']) ([ge'g'][fd'f']) | [cc'] [ee']2 [ff']- | %15
 [ff'] [cc']2 [ee']- | [ee'] [Bb]2 [cc']- | [cc'] [Ff]2 [Gg] | [Aa] z e2- | e2 f2- | f2 e2- | %21
 ec BA | c z e2- | e2 f2- | f2 e2- | ec fe | B z [fd'f']2 | [fd'f']2 [fd'f']2 | %28
 ([ge'g'][f=d'f']) ([ge'g'][fd'f']) | ([ge'g'][f=d'f']) ([ge'g'][fd'f']) | [cc'] [ee']2 [ff']- | %31
 [ff'] [cc']2 [ee']- | [ee'] [Bb]2 [cc']- | [cc'] [Ff]2 [Gg] | [Aa]!mf![CE]!ff! .[gbe'g']2 | %35
 (f'/=e'/f'/g'/) (b'/a'/g'/f'/) | ([e'g']/[=d'f']/[e'g']/[f'a']/ .[bg'b']2) | %37
 (f'/=e'/f'/g'/) (b'/a'/b'/a'/ | [ge'g']) z .[b=d'g'b']2 | (f'/=e'/f'/g'/) (b'/a'/g'/f'/) | %40
 ([e'g']/[=d'f']/[e'g']/[f'a']/ .[bg'b']2) | (f'/=e'/f'/g'/) (b'/a'/b'/a'/ | [ge'g']) z z2 |: %43
!mf! [Bb]4 | [cbc']4 | ([=d=d']4 | [ege']) z z2 ::!mp! [Bb]4 | [cbc']4 | ([=d=d']4 | %50
 [ege']) z z2 :| z!p!"_cresc." [B,B] z [A,A] | z [G,G] z [B,B] | z [Dd] z [Cc] | z [B,B] z [Ee] | %55
 z [Gg] z [Ff] | z [Ee] z [Gg] | z [Bb] z!ff! [Aa] |!f! [Gg].[Bb] .[dd'].[cc'] | %59
!>(! .[Bb].[Aa] .[Gg].[Ff] | .[Ee].[Aa] .[Gg]!>)!!mp!.[Ff] | .[Ee].[Dd] .[Cc].[B,B] | %62
!fff! z2 [ee']2- | [ee']2 [ff']2- | [ff']2 [ee']2- | [ee'][cc'] [Bb][Aa] | [cc'] z [ee']2- | %67
 [ee']2 [ff']2- | [ff']2 [ee']2- | [ee'][cc'] [ff'][ee'] | [Bb] z [fd'f']2 | [fd'f']2 [fd'f']2 | %72
 ([ge'g'][f=d'f']) ([ge'g'][fd'f']) | ([ge'g'][f=d'f']) ([ge'g'][fd'f']) | [cc'] [ee']2 [ff']- | %75
 [ff'] [cc']2 [ee']- | [ee'] [Bb]2 [cc']- | [cc'] [Ff]2 [Gg] | [Aa] z [ee']2- | [ee']2 [ff']2- | %80
 [ff']2 [ee']2- | [ee'][cc'] [Bb][Aa] | [cc'] z [ee']2- | [ee']2 [ff']2- | [ff']2 [ee']2- | %85
 [ee'][cc'] [ff'][ee'] | [Bb] z [fd'f']2 | [fd'f']2 [fd'f']2 | ([ge'g'][f=d'f']) ([ge'g'][fd'f']) | %89
 ([ge'g'][f=d'f']) ([ge'g'][fd'f']) | [cc'] [ee']2 [ff']- | [ff'] [cc']2 [ee']- | %92
 [ee'] [Bb]2 [cc']- | [cc'] [Ff]2 [Gg] | [Aa] z !//-!A a | !//-!A a !//-!c [ac'] | %96
 !//-!c [ac'] !//-!e [be'] | !//-!e [be'] !//-!g [e'g'] | [ge'g'] [ge'g']2 [gbg']- | %99
 [gbg'] [faf']2 [f=bf']- | [fbf'] [ec'e']2 [d_bd']- | [dbd'] [Beb]2 [cec'] | [Aca] z !//-!A a | %103
 !//-!A a !//-!c [ac'] | !//-!c [ac'] !//-!e [be'] | !//-!e [be'] !//-!g [e'g'] | %106
 [ge'g'] [ge'g']2 [gbg']- | [gbg'] [faf']2 [f=bf']- | [fbf'] [ec'e']2 [d_bd']- | %109
 [dbd'] [Beb]2 [cec'] | [Aca]!fff![ee'] [fbd'f'][ee'] | !/-![ff']2 [ee']2 | !/-![ff']2 [ee']2 | %113
 !/-![ff']2 [ee']2 | !/-![ff']2 [ee']2 | !/-![ff']2 [ee']2 | !/-![ff']2 [ee']2 | %117
 !/-![ff']2 [ee']2 |!fff! a'f' e'c' | f'e' c'a | e'c' af | c'a fe | af [ea]c | [EAc]c [ea]a | %124
 [eac']c [eac']a | [eac'e']a [eac'e']e' |[Q:1/4=146] [ac'e'a']2[Q:1/4=136] [ac'e'a']2 | %127
[Q:1/4=126] [ac'e'a']2[Q:1/4=116] [ac'e'a']2 |[Q:1/4=96] [A,A]4- | [A,A]4 |] %130
V:2
!mp! [A,,A,] z [E,,E,] z | [A,,A,] z [E,,E,] z |[K:treble] z .[A,CEA] z .[A,CEA] | %3
 z .[A,CEA] z .[A,CEA] | z .[A,CEA] z .[A,CEA] | z .[A,CEA] z .[A,CE] | z .[A,CEA] z .[A,CEA] | %7
 z .[A,CEA] z .[A,CEA] | z .[A,CEA] z .[A,CEA] | z .[=A,CF=A] z .[A,CFA] | %10
!mf! z .[B,DFB] z .[B,DFB] | z .[B,DFB] z .[B,DFB] | z .[=B,=DG=B] z .[B,DGB] | %13
 z .[=B,=DG=B] z .[B,DGB] | z .[CEGc] z .[CEG] | z .[=A,CF=A] z .[A,CFA] | z .[B,DFB] z .[B,FB] | %17
 z .[F,B,DF] z .[E,B,DE] | z .[E,A,CE]!mp! z .[A,CEA] | z .[A,CEA] z .[A,CEA] | %20
 z .[A,CEA] z .[A,CEA] | z .[A,CEA] z .[A,CE] | z .[A,CEA] z .[A,CEA] | z .[A,CEA] z .[A,CEA] | %24
 z .[A,CEA] z .[A,CEA] | z .[=A,CF=A] z .[A,CFA] |!mf! z .[B,DFB] z .[B,DFB] | %27
 z .[B,DFB] z .[B,DFB] | z .[=B,=DG=B] z .[B,DGB] | z .[=B,=DG=B] z .[B,DGB] | z .[CEGc] z .[CEG] | %31
 z .[=A,CF=A] z .[A,CFA] | z .[B,DFB] z .[B,FB] | z .[F,B,DF] z .[E,B,DE] | %34
[K:bass] [A,,A,][E,A,] .[B,,B,]2 |[I:staff -1] =d'/^c'/d'/e'/ g'/f'/e'/d'/ | %36
[I:staff +1][K:treble] z [EB] .[B,EGB]2 |[I:staff -1] =d'/^c'/d'/e'/ g'/f'/g'/f'/ | %38
[I:staff +1] z [EB] .[B,EGB]2 |[I:staff -1] =d'/^c'/d'/e'/ g'/f'/e'/d'/ | %40
[I:staff +1][K:treble] z [EB] .[B,EGB]2 |[I:staff -1] =d'/^c'/d'/e'/ g'/f'/g'/f'/ | %42
[I:staff +1] z [EB][K:bass]!f! .[E,,E,]!mf!.[E,E] |:!p! .[A,,A,].[A,A] .[G,,G,].[G,G] | %44
 .[F,,F,].[F,F] .[A,,A,].[A,A] | .[G,,G,].[G,G] .[F,,F,].[F,F] | .[E,,E,].[E,E] .[E,,E,].[E,E] :: %47
!pp! .[A,,A,].[A,A] .[G,,G,].[G,G] | .[F,,F,].[F,F] .[A,,A,].[A,A] | %49
 .[G,,G,].[G,G] .[F,,F,].[F,F] | .[E,,E,].[E,E] .[E,,E,].[E,E] :| .[B,,B,] z .[A,,A,] z | %52
 .[G,,G,] z .[B,,B,] z | .[D,D] z .[C,C] z | .[B,,B,] z .[E,E] z | .[G,G] z .[F,F] z | %56
 .[E,E] z .[G,G] z | .[B,B] z .[A,A] z | G,.B, .D.C | .B,.A, .G,.F, | .E,.A, .G,.F, | %61
 .E,.D, .C,.B,, |[K:treble] z !>![eac']!ff! z [eac'] | z [eac'] z [eac'] | z [eac'] z [eac'] | %65
 z [ea] z [ec'] | z [eac'] z [eac'] | z [eac'] z [eac'] | z [eac'] z [eac'] | z [ea] z [eac'] | %70
 z [dfb]!f! z [dfb] | z [dfb] z [dfb] | z [=dg=b] z [dgb] | z [=dg=b] z [dgb] | z [cgc'] z [cgc'] | %75
 z [f=a] z [cfac'] | z [df] z [Bfb] | z [db] z [deb] | z!ff! [cea] z [eac'] | z [eac'] z [eac'] | %80
 z [eac'] z [eac'] | z [ea] z [ec'] | z [eac'] z [eac'] | z [eac'] z [eac'] | z [eac'] z [eac'] | %85
 z [ea] z [eac'] | z [dfb]!f! z [dfb] | z [dfb] z [dfb] | z [=dg=b] z [dgb] | z [=dg=b] z [dgb] | %90
 z [cgc'] z [cgc'] | z [f=a] z [cfac'] | z [df] z [Bfb] | z [db] z [deb] | %94
[K:bass] !>![A,,A,][A,,A,] [B,,B,][A,,A,] | !>![_G,,_G,][F,,F,] [A,,A,][G,,G,] | %96
 !>![_F,,_F,][E,,E,] [G,,G,][=F,,=F,] | !>![E,,E,][D,,D,] [C,,C,][B,,,B,,] | %98
 [=B,,,=B,,]2 [C,,C,]2 | [D,,D,]2 [=D,,=D,]2 | [E,,E,]2 [F,,F,]2 | [_G,,_G,]2 [=G,,=G,]2 | %102
 !>![A,,A,][A,,A,] [B,,B,][A,,A,] | !>![_G,,_G,][F,,F,] [A,,A,][G,,G,] | %104
 !>![_F,,_F,][E,,E,] [G,,G,][=F,,=F,] | !>![E,,E,][D,,D,] [C,,C,][B,,,B,,] | %106
 [=B,,,=B,,]2 [C,,C,]2 | [D,,D,]2 [=D,,=D,]2 | [E,,E,]2 [F,,F,]2 | [_G,,_G,]2 [=G,,=G,]2 | %110
 !>![A,,A,] z z2 |!ff! [F,A,]2 !>![E,,G,,E,]2 | !>![A,,A,]2 [B,D]2 | [F,A,]2 !>![E,,G,,E,]2 | %114
 !>![A,,A,]2 [B,D]2 | [F,A,]2 !>![E,,G,,E,]2 | !>![A,,A,]2 [B,D]2 | [F,A,]2 !>![E,,G,,E,]2 | %118
 !>![A,,A,]2 [A,,A,]2- | [A,,A,]2 [A,,A,]2- | [A,,A,]2 [A,,A,]2- | [A,,A,]2 [A,,A,]2- | %122
 [A,,A,]2 [A,,A,]2 | [A,,A,]2 [A,,A,]2 | [A,,A,]2 [A,,A,]2 | [A,,A,]2 [A,,A,]2 | %126
 [A,,A,]2 [A,,A,]2 | [A,,A,]2 [A,,A,]2 | !///-!A,,,2 A,,2 | !///-!A,,,2 A,,2 |] %130
V:3
 z4 | z4 | [A,,A,] z [E,,E,] z | [A,,A,] z [E,,E,] z | [A,,A,] z [E,,E,] z | [A,,A,] z [E,,E,] z | %6
 [A,,A,] z [E,,E,] z | [A,,A,] z [E,,E,] z | [A,,A,] z [E,,E,] z | [=A,,=A,] z [F,,F,] z | %10
!mf! [B,,B,] z [B,,B,] z | [B,,B,] z [B,,B,] z | [G,,G,] z [G,,G,] z | [G,,G,] z [G,,G,] z | %14
 [C,,C,] z [C,,C,] z | [F,,F,] z [F,,F,] z | [B,,,B,,] z [D,,D,] z | [E,,E,] z [E,,E,] z | %18
 [A,,A,] z!mp! [E,,E,] z | [A,,A,] z [E,,E,] z | [A,,A,] z [E,,E,] z | [A,,A,] z [E,,E,] z | %22
 [A,,A,] z [E,,E,] z | [A,,A,] z [E,,E,] z | [A,,A,] z [E,,E,] z | [=A,,=A,] z [F,,F,] z | %26
!mf! [B,,B,] z [B,,B,] z | [B,,B,] z [B,,B,] z | [G,,G,] z [G,,G,] z | [G,,G,] z [G,,G,] z | %30
 [C,,C,] z [C,,C,] z | [F,,F,] z [F,,F,] z | [B,,,B,,] z [D,,D,] z | [E,,E,] z [E,,E,] z | %34
 z2!8va)!!8va(! .[B,,E,G,B,]2 | !>![B,,B,]!>![C,C] !>![^C,^C]!>![=D,=D] | %36
 !>![E,E] E,,/E,,/ .[E,,E,]2 | !>![B,,B,]!>![C,C] !>![^C,^C]!>![=D,=D] | %38
 !>![E,E] E,,/E,,/ .[E,,E,]2 | !>![B,,B,]!>![C,C] !>![^C,^C]!>![=D,=D] | %40
 !>![E,E] E,,/E,,/ .[E,,E,]2 | !>![B,,B,]!>![C,C] !>![^C,^C]!>![=D,=D] | !>![E,E] z z2 |: z4 | z4 | %45
 z4 | z4 :: z4 | z4 | z4 | z4 :| z4 | z4 | z4 | z4 | z4 | z4 | z4 | z4 | z4 | z4 | z4 | %62
 !>![A,,A,]!>![CEAc]!ff! [E,,E,][CEAc] | [A,,A,][CEAc] [E,,E,][CEAc] | %64
 [A,,A,][CEAc] [E,,E,][CEAc] | [A,,A,][CEA] [E,,E,][CEc] | [A,,A,][CEAc] [E,,E,][CEAc] | %67
 [A,,A,][CEAc] [E,,E,][CEAc] | [A,,A,][CEAc] [E,,E,][CEAc] | [A,,A,][CEA] [E,,E,][CEAc] | %70
 [B,,B,][B,DFB]!f! [B,,B,][B,DFB] | [B,,B,][B,DFB] [B,,B,][B,DFB] | %72
 [G,,G,][=B,=DG=B] [G,,G,][B,DGB] | [G,,G,][=B,=DG=B] [G,,G,][B,DGB] | %74
 [C,,C,][G,CEG] [C,,C,][G,CEG] | [F,,F,][=A,CF=A] [F,,F,][A,CFA] | [B,,,B,,][B,DF] [D,,D,][B,FB] | %77
 [E,,E,][B,DB] [E,,E,][B,DEB] | [A,,A,]!ff![A,CEA] [E,,E,][CEAc] | [A,,A,][CEAc] [E,,E,][CEAc] | %80
 [A,,A,][CEAc] [E,,E,][CEAc] | [A,,A,][CEA] [E,,E,][CEc] | [A,,A,][CEAc] [E,,E,][CEAc] | %83
 [A,,A,][CEAc] [E,,E,][CEAc] | [A,,A,][CEAc] [E,,E,][CEAc] | [A,,A,][CEA] [E,,E,][CEAc] | %86
 [B,,B,][B,DFB]!f! [B,,B,][B,DFB] | [B,,B,][B,DFB] [B,,B,][B,DFB] | %88
 [G,,G,][=B,=DG=B] [G,,G,][B,DGB] | [G,,G,][=B,=DG=B] [G,,G,][B,DGB] | %90
 [C,,C,][G,CEG] [C,,C,][G,CEG] | [F,,F,][=A,CF=A] [F,,F,][A,CFA] | [B,,,B,,][B,DF] [D,,D,][B,FB] | %93
 [E,,E,][B,DB] [E,,E,][B,DEB] |[K:treble] z2!fff! [A,A]2- | [A,A]2 [A,A]2- | [A,A]2 [B,E]2- | %97
 [B,E]2 [G,EG]2- | [G,EG] [G,EG]2 [B,GB]- | [B,GB] [A,FA]2 [=B,F]- | [B,F] [CE]2 [_B,D]- | %101
 [B,D] [B,E]2 [CE] | [A,CE] z [A,A]2- | [A,A]2 [A,A]2- | [A,A]2 [B,E]2- | [B,E]2 [G,EG]2- | %106
 [G,EG] [G,EG]2 [B,GB]- | [B,GB] [A,FA]2 [=B,F]- | [B,F] [CE]2 [_B,D]- | [B,D] [B,E]2 [CE] | %110
 [A,CE] z [B,DFB]2 |!ff! [Afa]2 !>![Bgb]2 | !>![cac']2 [bd']2 | [Afa]2 !>![Bgb]2 | %114
 !>![cac']2 [bd']2 | [Afa]2 [Bgb]2 | [cac']2 [bd']2 | [Afa]2 !>![Bgb]2 | !>![cac']2 [ceac']2- | %119
 [ceac']2 [Acea]2- | [Acea]2 [Acea]2- | [Acea]2 [Acea]2- | [Acea]2 [EAc]2 | [ea]2 [EAc]2 | %124
 [EAc]2 [EAc]2 | [EAc]2 [EAc]2 | [EAc]2 [EAc]2 | [EAc]2 [EAc]2 | z4 | z4 |] %130
V:4
 x4 | x4 | x4 | x4 | x4 | x4 | x4 | x4 | x4 | x4 | x4 | x4 | x4 | x4 | x4 | x4 | x4 | x4 | x4 | %19
 x4 | x4 | x4 | x4 | x4 | x4 | x4 | x4 | x4 | x4 | x4 | x4 | x4 | x4 | x4 | x4 | x4 | x4 | x4 | %38
 x4 | x4 | x4 | x4 | x4 |: x4 | x4 | b2 a2 | x4 :: x4 | x4 | b2 a2 | x4 :| x4 | x4 | x4 | x4 | x4 | %56
 x4 | x4 | x4 | x4 | x4 | x4 | x4 | x4 | x4 | x4 | x4 | x4 | x4 | x4 | x4 | x4 | x4 | x4 | x4 | %75
 x4 | x4 | x4 | x4 | x4 | x4 | x4 | x4 | x4 | x4 | x4 | x4 | x4 | x4 | x4 | x4 | x4 | x4 | x4 | %94
 x4 | x4 | x4 | x4 | x4 | x4 | x4 | x4 | x4 | x4 | x4 | x4 | x4 | x4 | x4 | x4 | x4 | x4 | x4 | %113
 x4 | x4 | x4 | x4 | x4 | x4 | x4 | x4 | x4 | x4 | x4 | x4 | x4 | x4 | x4 | x4 | x4 |] %130

